X:122
T:Frolick and Free THO1.122
M:2/4
L:1/8
Z:vmp. Peter Dunk 2012.from a transcription by Fynn Titford-Mock 2006
B:Thompson's Compleat Collection of 200 Favourite Country Dances Vol.I,1758
Q:1/4=140
K:G
[g2B2D2G,2] fe|dcBA|[g2B2D2G,2]fe|fg (f/g/a)|\
[g2B2D2G,2] fe|dcBA|BGAF|G2g2:|
|:BG (B/c/d)|(e/f/g) (B/c/d)|BGBd|ecAc|BG (B/c/d)|(e/f/g) (B/c/d)|BGAF|G2g2:|

